usr/share/icons/biglinux-icons-material/scalable/devices/media-optical.svg

<svg xmlns="http://www.w3.org/2000/svg" xmlns:xlink="http://www.w3.org/1999/xlink" xml:space="preserve" width="24" height="24" version="1"><defs><radialGradient id="a" cx="0" cy="0" r="1" fx="0" fy="0" gradientTransform="matrix(0 16.5 -16.5 0 9 .75)" gradientUnits="userSpaceOnUse" spreadMethod="pad"><stop offset="0" style="stop-opacity:1;stop-color:#a4a4a4"/><stop offset="1" style="stop-opacity:1;stop-color:#626262"/></radialGradient><radialGradient id="b" cx="0" cy="0" r="1" fx="0" fy="0" gradientTransform="matrix(0 16.49996 -16.49996 0 9 .75)" gradientUnits="userSpaceOnUse" spreadMethod="pad"><stop offset="0" style="stop-opacity:1;stop-color:#a4a4a4"/><stop offset="1" style="stop-opacity:1;stop-color:#626262"/></radialGradient><clipPath id="c" clipPathUnits="userSpaceOnUse"><path d="M0 0h19v19H0Z"/></clipPath><clipPath id="d" clipPathUnits="userSpaceOnUse"><path d="M0 0h19v19H0Z"/></clipPath></defs><use xlink:href="#a" width="100%" height="100%" fill="#fff" fill-rule="evenodd" opacity=".5" transform="matrix(1.6 0 0 1.6 -36 17)"/><path d="M7.195.836c.09 0 .176-.012.258-.035a23.862 23.862 0 0 1 3.231.008 10.26 10.26 0 0 1 2.836.636c1.519.625 2.558 1.711 3.121 3.254.316.93.507 1.887.566 2.867a21.227 21.227 0 0 1-.086 3.696 8.84 8.84 0 0 1-.672 2.488c-.637 1.383-1.672 2.336-3.101 2.859-1.153.391-2.36.598-3.575.618a15.985 15.985 0 0 1-4.089-.309c-2.481-.551-4.016-2.066-4.594-4.543a14.244 14.244 0 0 1-.336-3.383c-.027-1.215.101-2.41.387-3.59.609-2.312 2.078-3.746 4.406-4.3A10.27 10.27 0 0 1 7.195.836Z" style="fill:url(#b);fill-rule:evenodd;stroke:none" transform="scale(1.33333)"/><path d="M15 9a5.967 5.967 0 0 0-1.754-4.246A5.967 5.967 0 0 0 9 3a5.967 5.967 0 0 0-4.246 1.754A5.967 5.967 0 0 0 3 9a5.967 5.967 0 0 0 1.754 4.246A5.967 5.967 0 0 0 9 15a5.967 5.967 0 0 0 4.246-1.754A5.967 5.967 0 0 0 15 9Zm-3.805 0A2.184 2.184 0 0 1 9 11.195 2.187 2.187 0 0 1 6.801 9c0-1.207.894-2.195 2.199-2.195 1.305 0 2.195 1.011 2.195 2.195z" clip-path="url(#c)" opacity=".75" style="fill:#fff;fill-opacity:1;fill-rule:nonzero;stroke:none" transform="scale(1.33333)"/><path d="M9 6a3.001 3.001 0 0 0 0 6.004C13.004 12.004 13.004 6 9 6Zm0 1.5c2.004 0 2.004 3 0 3-2 .004-2.004-3-.004-3z" clip-path="url(#d)" opacity=".35" style="fill:#fff;fill-opacity:1;fill-rule:nonzero;stroke:none" transform="scale(1.33333)"/></svg>

<?xml version="1.0" encoding="UTF-8" standalone="no"?>
<svg
   xml:space="preserve"
   width="24"
   height="24"
   version="1"
   id="svg4"
   sodipodi:docname="media-optical-video.svg"
   inkscape:version="1.3 (0e150ed6c4, 2023-07-21)"
   xmlns:inkscape="http://www.inkscape.org/namespaces/inkscape"
   xmlns:sodipodi="http://sodipodi.sourceforge.net/DTD/sodipodi-0.dtd"
   xmlns:xlink="http://www.w3.org/1999/xlink"
   xmlns="http://www.w3.org/2000/svg"
   xmlns:svg="http://www.w3.org/2000/svg"><sodipodi:namedview
     id="namedview4"
     pagecolor="#ffffff"
     bordercolor="#000000"
     borderopacity="0.25"
     inkscape:showpageshadow="2"
     inkscape:pageopacity="0.0"
     inkscape:pagecheckerboard="0"
     inkscape:deskcolor="#d1d1d1"
     inkscape:zoom="24.020833"
     inkscape:cx="-2.8725065"
     inkscape:cy="12.17693"
     inkscape:window-width="3440"
     inkscape:window-height="1358"
     inkscape:window-x="2560"
     inkscape:window-y="0"
     inkscape:window-maximized="1"
     inkscape:current-layer="svg4"><inkscape:page
       x="0"
       y="0"
       width="24"
       height="24"
       id="page1"
       margin="0"
       bleed="0" /></sodipodi:namedview><defs
     id="defs2"><radialGradient
       id="a"
       cx="0"
       cy="0"
       r="1"
       fx="0"
       fy="0"
       gradientTransform="matrix(0,16.5,-16.5,0,9,0.75)"
       gradientUnits="userSpaceOnUse"
       spreadMethod="pad"><stop
         offset="0"
         style="stop-opacity:1;stop-color:#a4a4a4"
         id="stop1" /><stop
         offset="1"
         style="stop-opacity:1;stop-color:#626262"
         id="stop2" /></radialGradient><radialGradient
       fx="0"
       fy="0"
       cx="0"
       cy="0"
       r="1"
       gradientUnits="userSpaceOnUse"
       gradientTransform="matrix(0,16.499959,-16.499959,0,8.999977,0.749998)"
       spreadMethod="pad"
       id="radialGradient2"><stop
         style="stop-opacity:1;stop-color:#a4a4a4"
         offset="0"
         id="stop1-5" /><stop
         style="stop-opacity:1;stop-color:#626262"
         offset="1"
         id="stop2-3" /></radialGradient><clipPath
       clipPathUnits="userSpaceOnUse"
       id="clipPath3"><path
         d="M 0,0 H 19 V 19 H 0 Z"
         id="path3-5" /></clipPath><clipPath
       clipPathUnits="userSpaceOnUse"
       id="clipPath5"><path
         d="M 0,0 H 19 V 19 H 0 Z"
         id="path5" /></clipPath><radialGradient
       fx="0"
       fy="0"
       cx="0"
       cy="0"
       r="1"
       gradientUnits="userSpaceOnUse"
       gradientTransform="matrix(0,16.499959,-16.499959,0,8.999977,0.749998)"
       spreadMethod="pad"
       id="radialGradient2-1"><stop
         style="stop-opacity:1;stop-color:#a4a4a4"
         offset="0"
         id="stop1-2" /><stop
         style="stop-opacity:1;stop-color:#626262"
         offset="1"
         id="stop2-7" /></radialGradient><clipPath
       clipPathUnits="userSpaceOnUse"
       id="clipPath3-0"><path
         d="M 0,0 H 19 V 19 H 0 Z"
         id="path3" /></clipPath><clipPath
       clipPathUnits="userSpaceOnUse"
       id="clipPath5-9"><path
         d="M 0,0 H 19 V 19 H 0 Z"
         id="path5-3" /></clipPath></defs><use
     xlink:href="#a"
     width="100%"
     height="100%"
     fill="#ffffff"
     fill-rule="evenodd"
     opacity="0.5"
     transform="matrix(1.6,0,0,1.6,-36,17)"
     id="use2" /><g
     id="g1"
     inkscape:groupmode="layer"
     inkscape:label="1"
     transform="translate(-34)" /><g
     id="g1-6"
     inkscape:groupmode="layer"
     inkscape:label="1"><path
       id="path2"
       d="m 7.195,0.836 c 0.09,0 0.176,-0.012 0.258,-0.035 1.074,-0.071 2.156,-0.067 3.231,0.008 0.972,0.078 1.925,0.289 2.836,0.636 1.519,0.625 2.558,1.711 3.121,3.254 0.316,0.93 0.507,1.887 0.566,2.867 0.078,1.231 0.051,2.469 -0.086,3.696 -0.101,0.859 -0.328,1.695 -0.672,2.488 -0.637,1.383 -1.672,2.336 -3.101,2.859 C 12.195,17 10.988,17.207 9.773,17.227 8.402,17.301 7.027,17.195 5.684,16.918 3.203,16.367 1.668,14.852 1.09,12.375 0.844,11.266 0.73,10.129 0.754,8.992 0.727,7.777 0.855,6.582 1.141,5.402 1.75,3.09 3.219,1.656 5.547,1.102 6.09,0.969 6.641,0.879 7.195,0.836 Z"
       transform="scale(1.3333333)"
       style="fill:url(#radialGradient2-1);fill-rule:evenodd;stroke:none" /><g
       opacity="0.75"
       id="g4"><path
         d="M 15,9 C 15.004,7.406 14.375,5.879 13.246,4.754 12.121,3.625 10.594,2.996 9,3 7.406,2.996 5.879,3.625 4.754,4.754 3.625,5.879 2.996,7.406 3,9 2.996,10.594 3.625,12.121 4.754,13.246 5.879,14.375 7.406,15.004 9,15 10.594,15.004 12.121,14.375 13.246,13.246 14.375,12.121 15.004,10.594 15,9 Z M 11.195,9 C 11.199,10.215 10.215,11.203 9,11.195 7.785,11.203 6.797,10.215 6.801,9 6.801,7.793 7.695,6.805 9,6.805 c 1.305,0 2.195,1.011 2.195,2.195 z"
         style="fill:#ffffff;fill-opacity:1;fill-rule:nonzero;stroke:none"
         transform="scale(1.3333333)"
         clip-path="url(#clipPath3-0)"
         id="path4" /></g><g
       opacity="0.35"
       id="g6-0"><path
         d="M 9,6 C 7.344,6 6,7.344 6,9 6,10.66 7.344,12.004 9,12.004 13.004,12.004 13.004,6 9,6 Z m 0,1.5 c 2.004,0 2.004,3 0,3 -2,0.004 -2.004,-3 -0.004,-3 z"
         style="fill:#ffffff;fill-opacity:1;fill-rule:nonzero;stroke:none"
         transform="scale(1.3333333)"
         clip-path="url(#clipPath5-9)"
         id="path6-6" /></g></g></svg>
